X: 19
M: 6/8
L: 1/8
K: G
"G"Bcd "D/G"edB | "G"GA^A "B/G7"B=AG | "C"EFG "Am"AGE | "G"D3 "B/G7"D2D |\
"C"EFG "E/C"AGE | "G"DGA "Em"B2B | "A"A^AB "C#/A7"B=AE | "D"FG^G "F#/D7"A2A |
"G"Bcd "D/G"edB | "G"GA^A "B/G7"B=AG | "C"EFG "Am"AGE | "G"D3 "B/G7"D2D |\
"C"EFG "E/C"AGE | "G"DGA "Em"B2B | "Am"ABA "D7"FGA | "G"G3 G2F ||
"C"EFG "E/C"AGE | "G"DGA "Em"B2B | "Am"A^GA "D7"cBA | "G"GA^A "B/G7"B2B |\
"C"EFG "E/C"AGE | "G"DGA "Em"B2B | "G"BAG "Am"cde | "D"d^ce "F#/D7"d2=c |
"G"Bcd "D/G"edB | "G"GA^A "B/G7"B=AG | "C"EFG "Am"AGE | "G"D3 "B/G7"D2D |\
"C"EFG "E/C"AGE | "G"DGA "Em"d2c | "Am"BcB "D7"AGF | "G"G3 G3 |]
John Drewry devised, and dedicated, the dance "JAG's Jig" to the three people ('J'anette Bulloch,
'A'lice McLean and myself 'G'- hence JAG) who now organise the overseas winter dance holidays that
tune for the dance, this tune being the result.


